homeassistant/www/chef-man.svg

<svg id="Layer_1" enable-background="new 0 0 512 512" height="512" viewBox="0 0 512 512" width="512" xmlns="http://www.w3.org/2000/svg"><g><g><g><g><g><path d="m403.36 502v-62.164c0-25.042-15.987-47.288-39.721-55.274l-84.399-28.399c-7.911-2.662-13.24-10.078-13.24-18.425v-31.656h-86.507v31.656c0 8.347-5.329 15.763-13.24 18.425l-84.399 28.399c-23.734 7.986-39.721 30.232-39.721 55.274v62.164c0 5.523 4.477 10 10 10h341.227c5.523 0 10-4.477 10-10z" fill="#f8f5f9"/></g></g><path d="m286.682 358.667-22.442-2.504c-7.911-2.662-13.24-10.078-13.24-18.425v-31.656h-71.507v31.656c0 8.347-5.329 15.763-13.24 18.425l-9.827 3.306 48.439 37.531z" fill="#f1ccbd"/><path d="m236 306.083v46.656c0 8.347 5.329 15.763 13.24 18.425l6.269 2.109 31.173-14.605-7.442-2.504c-7.911-2.662-13.24-10.078-13.24-18.425v-31.656z" fill="#eaad9c"/><g><path d="m222.747 337.376s-30.601 1.732-43.255-4.419c-31.992-15.55-54.044-48.361-54.044-86.322v-58.401l95.922-44.87 95.922 44.87v58.401c0 36.862-20.793 68.867-51.289 84.928-13.332 7.021-27.142 5.813-43.256 5.813z" fill="#f1ccbd"/><path d="m287.292 173.234v73.401c.199 6.485.481 37.723-23.267 62.628-33.279 34.901-82.167 24.248-84.532 23.691 7.276 3.491 18.647 7.885 33.179 9.212 0 0 4.453.391 8.698.391 52.977 0 95.922-42.946 95.922-95.922v-58.401z" fill="#eaad9c"/><path d="m323.864 245.649h-6.571v-37.119h6.571c10.25 0 18.56 8.309 18.56 18.56 0 10.25-8.31 18.559-18.56 18.559z" fill="#f1ccbd"/><path d="m118.876 245.649h6.571v-37.119h-6.571c-10.25 0-18.56 8.309-18.56 18.56.001 10.25 8.31 18.559 18.56 18.559z" fill="#eaad9c"/><path d="" style="fill:#fff;stroke:#000;stroke-width:15;stroke-linecap:round;stroke-linejoin:round;stroke-miterlimit:10"/><path d="" style="fill:#fff;stroke:#000;stroke-width:15;stroke-linecap:round;stroke-linejoin:round;stroke-miterlimit:10"/><path d="m332.357 73.948c-2.597-24.2-21.835-43.654-45.995-46.604-6.653-.813-13.085-.36-19.114 1.119-2.558.628-5.24-.264-6.944-2.273-9.692-11.43-24.147-18.69-40.306-18.69s-30.615 7.26-40.306 18.69c-1.703 2.008-4.386 2.901-6.943 2.273-4.981-1.222-10.236-1.743-15.663-1.43-26.852 1.552-48.49 23.437-49.705 50.306-.86 19.021 8.347 35.939 22.737 45.907 2.228 1.543 3.345 4.247 2.877 6.916l-7.547 58.072c28.668-4.079 62.044-6.963 99.225-6.783 34.474.167 65.59 2.937 92.62 6.783-2.602-14.98-5.205-44.917-7.807-59.897-.44-2.535.543-5.116 2.581-6.688 13.943-10.753 22.371-28.306 20.29-47.701z" fill="#f8f5f9"/><g><path d="m267.248 28.463c-.003.85.531 1.598 1.325 1.899 18.207 6.918 31.661 23.662 33.789 43.628 2.064 19.368-6.352 36.895-20.272 47.642-2.043 1.577-3.047 4.155-2.605 6.698 2.406 13.847 4.813 40.478 7.219 56.26 10.695 1.031 20.909 2.267 30.589 3.644-2.603-14.984-5.206-44.931-7.809-59.908-.441-2.534.544-5.105 2.582-6.676 13.933-10.745 22.36-28.279 20.297-47.656-2.564-24.078-21.605-43.499-45.619-46.603-6.79-.877-13.352-.436-19.496 1.072z" fill="#dad9e4"/></g></g><path d="m363.639 384.562-76.957-25.894-89.109 41.749c-12.749 5.973-20.893 18.782-20.893 32.861v71.222 7.5h216.68c5.523 0 10-4.477 10-10v-62.164c0-25.042-15.986-47.288-39.721-55.274z" fill="#dbd8ea"/><path d="m333.639 399.562c23.734 7.986 39.721 30.233 39.721 55.274v57.164h20c5.523 0 10-4.477 10-10v-62.164c0-25.042-15.986-47.288-39.721-55.274l-76.957-25.894-31.272 14.652z" fill="#d0cde4"/><g><g><path d="m349.87 270v72c0 8.284 6.716 15 15 15h9c8.284 0 15 6.716 15 15v90c0 8.284 6.716 15 15 15h12c8.284 0 15-6.716 15-15v-90c0-8.284 6.716-15 15-15h9c8.284 0 15-6.716 15-15v-72c0-8.284-6.716-15-15-15h-90c-8.284 0-15 6.716-15 15z" fill="#ebf4ff"/></g><path d="m422.566 504.5h-41.257c-6.396 0-11.582-5.185-11.582-11.582v-57.123c0-6.396 5.185-11.582 11.582-11.582h41.257c15.159 0 27.447 12.288 27.447 27.447v25.392c0 15.16-12.288 27.448-27.447 27.448z" fill="#f1ccbd"/><path d="m422.566 424.214h-30c15.159 0 27.447 12.289 27.447 27.447v25.392c0 15.158-12.288 27.447-27.447 27.447h30c15.159 0 27.447-12.289 27.447-27.447v-25.392c0-15.158-12.288-27.447-27.447-27.447z" fill="#eaad9c"/></g></g></g><path d="m117.133 452c-4.143 0-7.5 3.357-7.5 7.5v45c0 4.143 3.357 7.5 7.5 7.5s7.5-3.357 7.5-7.5v-45c0-4.143-3.358-7.5-7.5-7.5zm98.658 25c-4.142 0-7.5 3.358-7.5 7.5s3.358 7.5 7.5 7.5 7.5-3.358 7.5-7.5-3.358-7.5-7.5-7.5zm45 0c-4.142 0-7.5 3.358-7.5 7.5s3.358 7.5 7.5 7.5 7.5-3.358 7.5-7.5-3.358-7.5-7.5-7.5zm-45-45c-4.142 0-7.5 3.358-7.5 7.5s3.358 7.5 7.5 7.5 7.5-3.358 7.5-7.5-3.358-7.5-7.5-7.5zm45 0c-4.142 0-7.5 3.358-7.5 7.5s3.358 7.5 7.5 7.5 7.5-3.358 7.5-7.5-3.358-7.5-7.5-7.5zm194.079-184.5h-90c-12.406 0-22.5 10.094-22.5 22.5v72c0 12.406 10.094 22.5 22.5 22.5h9c4.136 0 7.5 3.364 7.5 7.5v12.959c-4.747-3.141-9.901-5.674-15.339-7.508l-84.4-28.399c-5.727-1.931-8.555-7.347-8.131-13.124 28.896-16.937 48.885-47.495 51.083-82.798 14.037-.383 25.341-11.913 25.341-26.041 0-14.058-11.191-25.544-25.131-26.036.013-1.469.084-12.72-.09-13.92-1.089-7.531-2.576-18.588-3.864-29.711-1.273-10.993-2.59-22.356-3.909-30.053 16.592-12.948 25.142-33.189 22.884-54.221-.797-7.436-2.963-14.577-6.438-21.229-1.918-3.672-6.451-5.092-10.12-3.175-3.671 1.918-5.093 6.448-3.175 10.12 2.601 4.979 4.222 10.322 4.818 15.884 1.709 15.922-4.801 31.234-17.412 40.961-4.247 3.274-6.313 8.604-5.392 13.911 1.266 7.28 2.576 18.591 3.844 29.528.807 6.967 1.632 14.083 2.463 20.319-27.711-3.527-55.818-5.382-83.693-5.517-30.173-.134-60.586 1.716-90.563 5.541l6.268-48.229c.883-5.477-1.469-11.025-6.025-14.182-12.932-8.958-20.228-23.688-19.517-39.404 1.034-22.878 19.767-41.835 42.645-43.157 4.538-.261 9.063.151 13.445 1.227 5.338 1.308 10.878-.494 14.45-4.707 8.644-10.192 21.25-16.039 34.586-16.039 13.335 0 25.941 5.847 34.586 16.04 3.571 4.212 9.106 6.016 14.451 4.707 5.353-1.313 10.875-1.635 16.417-.959 4.566.558 9.006 1.813 13.196 3.73 3.769 1.724 8.217.068 9.94-3.698 1.725-3.767.068-8.217-3.698-9.94-5.594-2.561-11.521-4.236-17.619-4.98-7.226-.885-14.445-.482-21.456 1.193-11.494-13.409-28.174-21.093-45.817-21.093-17.644 0-34.323 7.683-45.817 21.093-5.725-1.368-11.621-1.893-17.529-1.547-14.844.857-28.824 7.205-39.368 17.874-10.547 10.672-16.725 24.728-17.396 39.58-.94 20.784 8.649 40.274 25.667 52.209-.106.596-7.569 58.157-7.592 58.721-.013.33-.026 12.781-.015 13.123-13.94.492-25.131 11.979-25.131 26.036 0 14.127 11.302 25.656 25.337 26.041.672 10.89 3.032 21.507 7.055 31.64 1.546 3.896 5.968 5.699 9.737 4.204 3.851-1.527 5.732-5.888 4.204-9.737-4.115-10.37-6.202-21.339-6.202-32.602v-51.833c30.327-4.013 61.129-5.994 91.689-5.851 28.373.137 56.983 2.119 85.156 5.847v51.837c0 48.756-39.666 88.422-88.423 88.422-24.644 0-48.357-10.403-65.062-28.542-2.806-3.046-7.551-3.243-10.598-.436-3.047 2.806-3.242 7.55-.436 10.598 7.759 8.425 16.814 15.417 26.715 20.793v.27c0 5.13-3.268 9.676-8.132 11.312l-84.401 28.4c-26.813 9.027-44.827 34.1-44.827 62.388v64.66c0 4.143 3.357 7.5 7.5 7.5s7.5-3.357 7.5-7.5v-64.66c0-21.843 13.91-41.201 34.612-48.172l70.763-23.811 35.747 27.697c-13.223 7.805-21.572 22.194-21.572 37.724v71.222c0 4.143 3.357 7.5 7.5 7.5s7.5-3.357 7.5-7.5v-71.223c0-11.119 6.506-21.353 16.574-26.069l86.39-40.475 74.097 24.933c7.627 2.573 14.527 6.932 20.128 12.656v12.392h-.062c-10.521 0-19.081 8.561-19.081 19.082v57.122c0 10.521 8.56 19.082 19.081 19.082h41.258c19.27 0 34.946-15.678 34.946-34.947v-25.392c0-13.583-7.795-25.374-19.143-31.154v-48.507c0-4.136 3.364-7.5 7.5-7.5h9c12.406 0 22.5-10.094 22.5-22.5v-72c.003-12.406-10.091-22.5-22.497-22.5zm-130.077-31.432c5.665.473 10.131 5.235 10.131 11.021s-4.466 10.548-10.131 11.021zm-206.846 22.041c-5.665-.473-10.131-5.235-10.131-11.021s4.466-10.548 10.131-11.021zm87.888 150.154-33.983-26.33c7.319-3.562 12.593-10.214 14.425-18.048 11.161 4.033 23.031 6.172 35.094 6.172 13.281 0 25.982-2.523 37.657-7.104 1.242 6.308 4.691 11.916 9.66 15.862zm236.678 63.398v25.392c0 10.999-8.948 19.947-19.946 19.947h-41.258c-2.25 0-4.081-1.831-4.081-4.082v-57.122c0-2.251 1.831-4.082 4.081-4.082h41.258c10.997 0 19.946 8.948 19.946 19.947zm19.857-109.661c0 4.136-3.364 7.5-7.5 7.5h-9c-12.406 0-22.5 10.094-22.5 22.5v44.734c-.724-.032-26.208-.017-27-.021v-44.713c0-12.406-10.094-22.5-22.5-22.5h-9c-4.136 0-7.5-3.364-7.5-7.5v-72c0-4.136 3.364-7.5 7.5-7.5h90c4.136 0 7.5 3.364 7.5 7.5zm-249.872-241.376v35.958c0 4.143 3.357 7.5 7.5 7.5s7.5-3.357 7.5-7.5v-35.958c0-4.143-3.357-7.5-7.5-7.5s-7.5 3.357-7.5 7.5zm45.444-2.88-14.956 35.958c-1.591 3.824.22 8.214 4.045 9.805 3.738 1.555 8.199-.172 9.805-4.045l14.956-35.958c1.591-3.824-.22-8.214-4.045-9.805-3.824-1.591-8.214.22-9.805 4.045zm14.679 144.799v-15.479c0-4.143-3.357-7.5-7.5-7.5s-7.5 3.357-7.5 7.5v15.479c0 4.143 3.357 7.5 7.5 7.5s7.5-3.357 7.5-7.5zm107.249 34.957c-4.143 0-7.5 3.357-7.5 7.5v42c0 4.143 3.357 7.5 7.5 7.5s7.5-3.357 7.5-7.5v-42c0-4.143-3.357-7.5-7.5-7.5zm-207.622-183.801c-3.825 1.591-5.636 5.98-4.045 9.805l14.956 35.958c1.606 3.872 6.058 5.603 9.805 4.045 3.825-1.591 5.636-5.98 4.045-9.805l-14.956-35.958c-1.591-3.825-5.981-5.635-9.805-4.045zm237.622 183.801c-4.143 0-7.5 3.357-7.5 7.5v42c0 4.143 3.357 7.5 7.5 7.5s7.5-3.357 7.5-7.5v-42c0-4.143-3.357-7.5-7.5-7.5zm30 0c-4.143 0-7.5 3.357-7.5 7.5v42c0 4.143 3.357 7.5 7.5 7.5s7.5-3.357 7.5-7.5v-42c0-4.143-3.357-7.5-7.5-7.5zm-217.393 16.345c7.604-.272 13.312-3.249 16.761-5.698 3.378-2.398 4.172-7.08 1.773-10.457-2.396-3.377-7.079-4.172-10.457-1.773-1.457 1.034-4.514 2.792-8.615 2.938-4.661.166-8.105-1.772-9.759-2.943-3.382-2.396-8.062-1.594-10.455 1.785-2.395 3.38-1.595 8.062 1.785 10.455 2.86 2.025 10.757 5.987 18.967 5.693zm-37.358-51.302v-15.479c0-4.143-3.357-7.5-7.5-7.5s-7.5 3.357-7.5 7.5v15.479c0 4.143 3.357 7.5 7.5 7.5s7.5-3.357 7.5-7.5z"/></g></svg>

<svg xmlns="http://www.w3.org/2000/svg" enable-background="new 0 0 512 512" height="512" viewBox="0 0 512 512" width="512"><path d="m403.36 502v-62.164c0-25.042-15.987-47.288-39.721-55.274l-84.399-28.399c-7.911-2.662-13.24-10.078-13.24-18.425v-31.656h-86.507v31.656c0 8.347-5.329 15.763-13.24 18.425l-84.399 28.399c-23.734 7.986-39.721 30.232-39.721 55.274v62.164c0 5.523 4.477 10 10 10h341.227c5.523 0 10-4.477 10-10z" fill="#070a06"/><path d="m286.682 358.667-22.442-2.504c-7.911-2.662-13.24-10.078-13.24-18.425v-31.656h-71.507v31.656c0 8.347-5.329 15.763-13.24 18.425l-9.827 3.306 48.439 37.531z" fill="#f1ccbd"/><path d="m236 306.083v46.656c0 8.347 5.329 15.763 13.24 18.425l6.269 2.109 31.173-14.605-7.442-2.504c-7.911-2.662-13.24-10.078-13.24-18.425v-31.656z" fill="#eaad9c"/><path d="m222.747 337.376s-30.601 1.732-43.255-4.419c-31.992-15.55-54.044-48.361-54.044-86.322v-58.401l95.922-44.87 95.922 44.87v58.401c0 36.862-20.793 68.867-51.289 84.928-13.332 7.021-27.142 5.813-43.256 5.813z" fill="#f1ccbd"/><path d="m287.292 173.234v73.401c.199 6.485.481 37.723-23.267 62.628-33.279 34.901-82.167 24.248-84.532 23.691 7.276 3.491 18.647 7.885 33.179 9.212 0 0 4.453.391 8.698.391 52.977 0 95.922-42.946 95.922-95.922v-58.401z" fill="#eaad9c"/><path d="m323.864 245.649h-6.571v-37.119h6.571c10.25 0 18.56 8.309 18.56 18.56 0 10.25-8.31 18.559-18.56 18.559z" fill="#f1ccbd"/><path d="m118.876 245.649h6.571v-37.119h-6.571c-10.25 0-18.56 8.309-18.56 18.56.001 10.25 8.31 18.559 18.56 18.559z" fill="#eaad9c"/><path d="m332.357 73.948c-2.597-24.2-21.835-43.654-45.995-46.604-6.653-.813-13.085-.36-19.114 1.119-2.558.628-5.24-.264-6.944-2.273-9.692-11.43-24.147-18.69-40.306-18.69s-30.615 7.26-40.306 18.69c-1.703 2.008-4.386 2.901-6.943 2.273-4.981-1.222-10.236-1.743-15.663-1.43-26.852 1.552-48.49 23.437-49.705 50.306-.86 19.021 8.347 35.939 22.737 45.907 2.228 1.543 3.345 4.247 2.877 6.916l-7.547 58.072c28.668-4.079 62.044-6.963 99.225-6.783 34.474.167 65.59 2.937 92.62 6.783-2.602-14.98-5.205-44.917-7.807-59.897-.44-2.535.543-5.116 2.581-6.688 13.943-10.753 22.371-28.306 20.29-47.701z" fill="#070a06"/><path d="m267.248 28.463c-.003.85.531 1.598 1.325 1.899 18.207 6.918 31.661 23.662 33.789 43.628 2.064 19.368-6.352 36.895-20.272 47.642-2.043 1.577-3.047 4.155-2.605 6.698 2.406 13.847 4.813 40.478 7.219 56.26 10.695 1.031 20.909 2.267 30.589 3.644-2.603-14.984-5.206-44.931-7.809-59.908-.441-2.534.544-5.105 2.582-6.676 13.933-10.745 22.36-28.279 20.297-47.656-2.564-24.078-21.605-43.499-45.619-46.603-6.79-.877-13.352-.436-19.496 1.072z" fill="#2a2a2a"/><path d="m363.639 384.562-76.957-25.894-89.109 41.749c-12.749 5.973-20.893 18.782-20.893 32.861v71.222 7.5h216.68c5.523 0 10-4.477 10-10v-62.164c0-25.042-15.986-47.288-39.721-55.274z" fill="#2a2a2a"/><path d="m333.639 399.562c23.734 7.986 39.721 30.233 39.721 55.274v57.164h20c5.523 0 10-4.477 10-10v-62.164c0-25.042-15.986-47.288-39.721-55.274l-76.957-25.894-31.272 14.652z" fill="#333333"/><path d="m349.87 270v72c0 8.284 6.716 15 15 15h9c8.284 0 15 6.716 15 15v90c0 8.284 6.716 15 15 15h12c8.284 0 15-6.716 15-15v-90c0-8.284 6.716-15 15-15h9c8.284 0 15-6.716 15-15v-72c0-8.284-6.716-15-15-15h-90c-8.284 0-15 6.716-15 15z" fill="#ebf4ff"/><path d="m422.566 504.5h-41.257c-6.396 0-11.582-5.185-11.582-11.582v-57.123c0-6.396 5.185-11.582 11.582-11.582h41.257c15.159 0 27.447 12.288 27.447 27.447v25.392c0 15.16-12.288 27.448-27.447 27.448z" fill="#f1ccbd"/><path d="m422.566 424.214h-30c15.159 0 27.447 12.289 27.447 27.447v25.392c0 15.158-12.288 27.447-27.447 27.447h30c15.159 0 27.447-12.289 27.447-27.447v-25.392c0-15.158-12.288-27.447-27.447-27.447z" fill="#eaad9c"/><path d="M 454.87 247.5 L 364.87 247.5 C 352.464 247.5 342.37 257.594 342.37 270 L 342.37 342 C 342.37 354.406 352.464 364.5 364.87 364.5 L 373.87 364.5 C 378.006 364.5 381.37 367.864 381.37 372 L 381.37 384.959 C 376.623 381.818 371.469 379.285 366.031 377.451 L 281.631 349.052 C 275.904 347.121 273.076 341.705 273.5 335.928 C 302.396 318.991 322.385 288.433 324.583 253.13 C 338.62 252.747 349.924 241.217 349.924 227.089 C 349.924 213.031 338.733 201.545 324.793 201.053 C 324.806 199.584 324.877 188.333 324.703 187.133 C 323.614 179.602 322.127 168.545 320.839 157.422 C 319.566 146.429 318.249 135.066 316.93 127.369 C 333.522 114.421 342.072 94.18 339.814 73.148 C 339.017 65.712 336.851 58.571 333.376 51.919 C 331.458 48.247 326.925 46.827 323.256 48.744 C 319.585 50.662 318.163 55.192 320.081 58.864 C 322.682 63.843 324.303 69.186 324.899 74.748 C 326.608 90.67 320.098 105.982 307.487 115.709 C 303.24 118.983 301.174 124.313 302.095 129.62 C 303.361 136.9 304.671 148.211 305.939 159.148 C 306.746 166.115 307.571 173.231 308.402 179.467 C 280.691 175.94 252.584 174.085 224.709 173.95 C 194.536 173.816 164.123 175.666 134.146 179.491 L 140.414 131.262 C 141.297 125.785 138.945 120.237 134.389 117.08 C 121.457 108.122 114.161 93.392 114.872 77.676 C 115.906 54.798 134.639 35.841 157.517 34.519 C 162.055 34.258 166.58 34.67 170.962 35.746 C 176.3 37.054 181.84 35.252 185.412 31.039 C 194.056 20.847 206.662 15 219.998 15 C 233.333 15 245.939 20.847 254.584 31.04 C 258.155 35.252 263.69 37.056 269.035 35.747 C 274.388 34.434 279.91 34.112 285.452 34.788 C 290.018 35.346 294.458 36.601 298.648 38.518 C 302.417 40.242 306.865 38.586 308.588 34.82 C 310.313 31.053 308.656 26.603 304.89 24.88 C 299.296 22.319 293.369 20.644 287.271 19.9 C 280.045 19.015 272.826 19.418 265.815 21.093 C 254.321 7.684 237.641 0 219.998 0 C 202.354 0 185.675 7.683 174.181 21.093 C 168.456 19.725 162.56 19.2 156.652 19.546 C 141.808 20.403 127.828 26.751 117.284 37.42 C 106.737 48.092 100.559 62.148 99.888 77 C 98.948 97.784 108.537 117.274 125.555 129.209 C 125.449 129.805 117.986 187.366 117.963 187.93 C 117.95 188.26 117.937 200.711 117.948 201.053 C 104.008 201.545 92.817 213.032 92.817 227.089 C 92.817 241.216 104.119 252.745 118.154 253.13 C 118.826 264.02 121.186 274.637 125.209 284.77 C 126.755 288.666 131.177 290.469 134.946 288.974 C 138.797 287.447 140.678 283.086 139.15 279.237 C 135.035 268.867 132.948 257.898 132.948 246.635 L 132.948 194.802 C 163.275 190.789 194.077 188.808 224.637 188.951 C 253.01 189.088 281.62 191.07 309.793 194.798 L 309.793 246.635 C 309.793 295.391 270.127 335.057 221.37 335.057 C 196.726 335.057 173.013 324.654 156.308 306.515 C 153.502 303.469 148.757 303.272 145.71 306.079 C 142.663 308.885 142.468 313.629 145.274 316.677 C 153.033 325.102 162.088 332.094 171.989 337.47 L 171.989 337.74 C 171.989 342.87 168.721 347.416 163.857 349.052 L 79.456 377.452 C 52.643 386.479 34.629 411.552 34.629 439.84 L 34.629 504.5 C 34.629 508.643 37.986 512 42.129 512 C 46.272 512 49.629 508.643 49.629 504.5 L 49.629 439.84 C 49.629 417.997 63.539 398.639 84.241 391.668 L 155.004 367.857 L 190.751 395.554 C 177.528 403.359 169.179 417.748 169.179 433.278 L 169.179 504.5 C 169.179 508.643 172.536 512 176.679 512 C 180.822 512 184.179 508.643 184.179 504.5 L 184.179 433.277 C 184.179 422.158 190.685 411.924 200.753 407.208 L 287.143 366.733 L 361.24 391.666 C 368.867 394.239 375.767 398.598 381.368 404.322 L 381.368 416.714 L 381.306 416.714 C 370.785 416.714 362.225 425.275 362.225 435.796 L 362.225 492.918 C 362.225 503.439 370.785 512 381.306 512 L 422.564 512 C 441.834 512 457.51 496.322 457.51 477.053 L 457.51 451.661 C 457.51 438.078 449.715 426.287 438.367 420.507 L 438.367 372 C 438.367 367.864 441.731 364.5 445.867 364.5 L 454.867 364.5 C 467.273 364.5 477.367 354.406 477.367 342 L 477.367 270 C 477.37 257.594 467.276 247.5 454.87 247.5 Z M 324.793 216.068 C 330.458 216.541 334.924 221.303 334.924 227.089 C 334.924 232.875 330.458 237.637 324.793 238.11 L 324.793 216.068 Z M 117.947 238.109 C 112.282 237.636 107.816 232.874 107.816 227.088 C 107.816 221.302 112.282 216.54 117.947 216.067 L 117.947 238.109 Z M 205.835 388.263 L 171.852 361.933 C 179.171 358.371 184.445 351.719 186.277 343.885 C 197.438 347.918 209.308 350.057 221.371 350.057 C 234.652 350.057 247.353 347.534 259.028 342.953 C 260.27 349.261 263.719 354.869 268.688 358.815 L 205.835 388.263 Z M 442.513 451.661 L 442.513 477.053 C 442.513 488.052 433.565 497 422.567 497 L 381.309 497 C 379.059 497 377.228 495.169 377.228 492.918 L 377.228 435.796 C 377.228 433.545 379.059 431.714 381.309 431.714 L 422.567 431.714 C 433.564 431.714 442.513 440.662 442.513 451.661 Z M 462.37 342 C 462.37 346.136 459.006 349.5 454.87 349.5 L 445.87 349.5 C 433.464 349.5 423.37 359.594 423.37 372 L 423.37 416.734 C 422.646 416.702 397.162 416.717 396.37 416.713 L 396.37 372 C 396.37 359.594 386.276 349.5 373.87 349.5 L 364.87 349.5 C 360.734 349.5 357.37 346.136 357.37 342 L 357.37 270 C 357.37 265.864 360.734 262.5 364.87 262.5 L 454.87 262.5 C 459.006 262.5 462.37 265.864 462.37 270 L 462.37 342 Z M 272.621 242.543 L 272.621 227.064 C 272.621 222.921 269.264 219.564 265.121 219.564 C 260.978 219.564 257.621 222.921 257.621 227.064 L 257.621 242.543 C 257.621 246.686 260.978 250.043 265.121 250.043 C 269.264 250.043 272.621 246.686 272.621 242.543 Z M 379.87 277.5 C 375.727 277.5 372.37 280.857 372.37 285 L 372.37 327 C 372.37 331.143 375.727 334.5 379.87 334.5 C 384.013 334.5 387.37 331.143 387.37 327 L 387.37 285 C 387.37 280.857 384.013 277.5 379.87 277.5 Z M 409.87 277.5 C 405.727 277.5 402.37 280.857 402.37 285 L 402.37 327 C 402.37 331.143 405.727 334.5 409.87 334.5 C 414.013 334.5 417.37 331.143 417.37 327 L 417.37 285 C 417.37 280.857 414.013 277.5 409.87 277.5 Z M 439.87 277.5 C 435.727 277.5 432.37 280.857 432.37 285 L 432.37 327 C 432.37 331.143 435.727 334.5 439.87 334.5 C 444.013 334.5 447.37 331.143 447.37 327 L 447.37 285 C 447.37 280.857 444.013 277.5 439.87 277.5 Z M 222.477 293.845 C 230.081 293.573 235.789 290.596 239.238 288.147 C 242.616 285.749 243.41 281.067 241.011 277.69 C 238.615 274.313 233.932 273.518 230.554 275.917 C 229.097 276.951 226.04 278.709 221.939 278.855 C 217.278 279.021 213.834 277.083 212.18 275.912 C 208.798 273.516 204.118 274.318 201.725 277.697 C 199.33 281.077 200.13 285.759 203.51 288.152 C 206.37 290.177 214.267 294.139 222.477 293.845 Z M 185.119 242.543 L 185.119 227.064 C 185.119 222.921 181.762 219.564 177.619 219.564 C 173.476 219.564 170.119 222.921 170.119 227.064 L 170.119 242.543 C 170.119 246.686 173.476 250.043 177.619 250.043 C 181.762 250.043 185.119 246.686 185.119 242.543 Z"/><path d="M 212.194 99.363 L 212.194 135.321 C 212.194 139.464 215.551 142.821 219.694 142.821 C 223.837 142.821 227.194 139.464 227.194 135.321 L 227.194 99.363 C 227.194 95.22 223.837 91.863 219.694 91.863 C 215.551 91.863 212.194 95.22 212.194 99.363 Z M 257.638 96.483 L 242.682 132.441 C 241.091 136.265 242.902 140.655 246.727 142.246 C 250.465 143.801 254.926 142.074 256.532 138.201 L 271.488 102.243 C 273.079 98.419 271.268 94.029 267.443 92.438 C 263.619 90.847 259.229 92.658 257.638 96.483 Z M 171.944 92.438 C 168.119 94.029 166.308 98.418 167.899 102.243 L 182.855 138.201 C 184.461 142.073 188.913 143.804 192.66 142.246 C 196.485 140.655 198.296 136.266 196.705 132.441 L 181.749 96.483 C 180.158 92.658 175.768 90.848 171.944 92.438 Z" fill="#fff"/><path d="M 117.16 451.92 C 113.017 451.92 109.66 455.277 109.66 459.42 L 109.66 504.42 C 109.66 508.563 113.017 511.92 117.16 511.92 C 121.303 511.92 124.66 508.563 124.66 504.42 L 124.66 459.42 C 124.66 455.277 121.302 451.92 117.16 451.92 Z M 215.818 476.92 C 211.676 476.92 208.318 480.278 208.318 484.42 C 208.318 488.562 211.676 491.92 215.818 491.92 C 219.96 491.92 223.318 488.562 223.318 484.42 C 223.318 480.278 219.96 476.92 215.818 476.92 Z M 260.818 476.92 C 256.676 476.92 253.318 480.278 253.318 484.42 C 253.318 488.562 256.676 491.92 260.818 491.92 C 264.96 491.92 268.318 488.562 268.318 484.42 C 268.318 480.278 264.96 476.92 260.818 476.92 Z M 215.818 431.92 C 211.676 431.92 208.318 435.278 208.318 439.42 C 208.318 443.562 211.676 446.92 215.818 446.92 C 219.96 446.92 223.318 443.562 223.318 439.42 C 223.318 435.278 219.96 431.92 215.818 431.92 Z M 260.818 431.92 C 256.676 431.92 253.318 435.278 253.318 439.42 C 253.318 443.562 256.676 446.92 260.818 446.92 C 264.96 446.92 268.318 443.562 268.318 439.42 C 268.318 435.278 264.96 431.92 260.818 431.92 Z" fill="#fff"/></svg>
